public/avatar/body/197.svg

<svg xmlns:xlink="http://www.w3.org/1999/xlink" height="82" width="84.85" xmlns="http://www.w3.org/2000/svg"><g transform="translate(37.4 42.25)"><use height="38" transform="translate(-11.95 -17.45)" width="32.05" xlink:href="#a"/><use height="38.95" transform="translate(-12.45 -17.95)" width="33.05" xlink:href="#b"/><use height="21.9" transform="translate(-11.25 5.1)" width="30.85" xlink:href="#c"/></g><defs><path d="M27.35 7.4q2.15 4.15 3.55 8.75 1.45 4.7 1.15 9.5-.35 4.95-4.2 8.1-3.8 3.2-8.75 4.05l-2.6.2q-3.6 0-7.05-1.15-4.65-1.6-7.1-5.5Q-.2 27.4.05 23q.2-4.4 2-9.3Q3.85 8.75 7 5.05 10.1 1.3 14.7.1l1.8-.1q1.9.05 3.7.8 4.75 2.05 7.15 6.6" fill="#dd994f" fill-rule="evenodd" transform="translate(-.05)" id="d"/><path d="M27.35 7.4Q24.95 2.85 20.2.8 17.55-.3 14.7.1 10.1 1.3 7 5.05q-3.15 3.7-4.95 8.65-1.8 4.9-2 9.3-.25 4.4 2.3 8.35 2.45 3.9 7.1 5.5 4.65 1.55 9.65.95 4.95-.85 8.75-4.05 3.85-3.15 4.2-8.1.3-4.8-1.15-9.5-1.4-4.6-3.55-8.75Z" fill="none" stroke="#532e0f" stroke-linecap="round" stroke-linejoin="round" transform="translate(.45 .5)" id="e"/><use height="38" width="32.05" xlink:href="#d" id="a"/><use height="38.95" width="33.05" xlink:href="#e" id="b"/><g id="c" fill-rule="evenodd"><path d="M4.2 16 4 22.75-6.25 26.5l-2.05-2.05q-.6-.4-.5-.85l.25-.4q-.6-.2-1.3-1.4l-.6-1.15.75-1.75-.35-4.05 1.35-.45L4.2 16" fill="#333e49" transform="translate(11.25 -5.1)"/><path d="M4 22.75 2.7 20.2l1.5-.1 7.85 1.75 4.85-6.45 1.45-.55q1.05 1.25-.15 4.3l1.2 1.35q.85.5-2.1 2.85l.05 1.05-2.85 2L4 22.75" fill="#333e49" transform="translate(11.25 -5.1)"/><path d="M18.45 15.2q.5 1.6-.5 3.85l1.4 1.8-2.25 2.45.15.9-2.7 1.95L4 22.45q-.25.5-10.55 3.9l.2-.1-2.35-2.35.15-.7q-.45-.1-1.9-2.55l.9-1.5q.75.35.15 0l-.65-3.9 28.5-.05" fill="#333e49" transform="translate(11.25 -5.1)"/><path d="m-11.25 12.55.45.75 1.55 1.45-.7 1q-.7-.3-1.1-1.8l-.2-1.4m30.8-.35q-.1 2.7-1.3 3.2l-.7-1 1.6-1.45.4-.75" fill="#333e49" transform="translate(11.25 -5.1)"/><path d="m4.25 15.6-.05 5.9q-1.35 1.1-10.35 4l-2.05-1.85-.1-1-1.75-2.15L-8.7 19l-.55-.5-.45-2.85.15-2 13.8 1.95" fill="#fff" transform="translate(11.25 -5.1)"/><path d="m18.15 15.7-.5 2.85-.5.5 1.35 1.5-1.75 2.15-.1 1-2.1 1.85q-9.25-2.95-10.6-4l.2-5.9L18 13.7l.15 2" fill="#fff" transform="translate(11.25 -5.1)"/><path d="m-8.7 19-.55-.5q1.95.6 12.8-1.35Q1.8 18-8.7 19" fill="#acacad" transform="translate(11.25 -5.1)"/><path d="m-9.5 21.3-.55-.8q1.35.6 14.1-3.4-5.75 2.55-13.55 4.2m1.6 2.65-.3-.3.1-.55 12.15-5.8-11.95 6.65" fill="#acacad" transform="translate(11.25 -5.1)"/><path d="m-.95 23.85-1.55.4 6.55-7.15q-.45 1.5-5 6.75M4.8 17.1q10.85 1.9 12.75 1.3l-.5.5q-10.5-1-12.25-1.8" fill="#acacad" transform="translate(11.25 -5.1)"/><path d="M4.3 17.05Q17.05 21 18.4 20.4l-.55.8q-7.8-1.6-13.55-4.15m0 .15L16.45 23l.1.6-.3.3L4.3 17.2" fill="#acacad" transform="translate(11.25 -5.1)"/><path d="m4.3 17.05 6.5 7.1-1.5-.4q-4.55-5.25-5-6.7" fill="#acacad" transform="translate(11.25 -5.1)"/><path d="m3.95 14 13.8-.95-13.85 1.7-13.45-1.6v-.2L3.95 14" fill="#333" transform="translate(11.25 -5.1)"/><path d="M4.15 17.55q-13.65-1.2-14-2.25l13.9 1.8.2-.05 14-1.95-.1.6-14 1.85" fill="#7e7e7f" transform="translate(11.25 -5.1)"/><path d="m4.2 17.1-13.6-1.5q-1.25-1-1.65-2.75l15.6 1.65-.35 2.6" fill="#034cb2" transform="translate(11.25 -5.1)"/><path d="M19.3 12.85q-.4 1.75-1.65 2.75l-13.6 1.55-.35-2.65 15.6-1.65" fill="#034cb2" transform="translate(11.25 -5.1)"/><path d="m4.05 15.65-15-2.8L4 14.55l15.15-1.6-15.1 2.7" fill="#ffff1c" transform="translate(11.25 -5.1)"/><path d="m3.95 16.55 13.85-.85-13.75 1.4-13.45-1.5 13.35.95" fill="#ffff1c" transform="translate(11.25 -5.1)"/><path d="m2.2 13.45.2.05.6 1.35L1.05 24.9q-1 .4-2.75-.4.6 0 1.15-1.65-.95.35-1.8-1.25 1.4-.8 4.55-8.15m4 0q4.35 7.7 4.7 7.8-.6 1.15-1.15 1.2L9.9 24q-1.15 1.2-2.1 1.05l-2.5-11 .9-.6" fill="#493c05" transform="translate(11.25 -5.1)"/><path d="m2.2 13.45.5.1.2.5L1.2 24.3l-2.45.15q.9-.35.7-1.9l-.2.05-1.1-.85q1.25-.5 4.05-8.3m4 .05 4.2 7.7-1.15 1 .25 1.45q-.75 1-1.7 1-.55 0-1.1-.8L6.25 23l-.95-8.95.75-.25-.15-.2.3-.1" fill="#ffff1c" transform="translate(11.25 -5.1)"/><path d="m-.55 22.55 2-6.1Q.15 22.8-.75 23.8l.2-1.25m7.05-8.1q2.9 7.75 3.25 8l-.05.8q-3.15-7.5-3.2-8.8" fill="#7c690a" transform="translate(11.25 -5.1)"/><path d="M1.7 16.45q.35.85-.55 8L-.5 24.4q.75-.1 2.2-7.95M-.75 22.4l-.75-.6q.65.55 1.85-2.6l-1.1 3.2m7.2-6.7 2.75 7.95-1 .65q.15-1.4-.8-5.15l-.95-3.45m.5-.2 2.75 5.8.45-.15-.65.6-2.55-6.25" fill="#e2bf30" transform="translate(11.25 -5.1)"/><path d="m1.5 13.8.45-.8 4.55.05.4.9-5.4-.15" fill="#333" transform="translate(11.25 -5.1)"/><path d="M6.3 13.3q.45.65.15 2.1l.8 3.3q1.75 7.4 0 8.3l-7.8-.6q1.65-.55 2.1-8.05-.1-2.3.25-3.95l.4-1.15 4.1.05" fill="#05486d" transform="translate(11.25 -5.1)"/><path d="M6.2 13.4q.25 1.2 0 1.95 2.75 11.2 1 11.45L0 26.35q1.65-1.6 1.7-9.1l.55-3.85H6.2" fill="#037df2" transform="translate(11.25 -5.1)"/><path d="m1.75 19.45 5.15-.4.3 1.45-2.65-.1q-2.7.05-2.9.75l.1-1.7m-.3 3.1 6.05.2.2 1.55-6.55.15.3-1.9m.6-6.3H6.3l.35 1.25-4.85.25.25-1.5m0-2.2 4.2.15-.2 1-4.25-.15.25-1" fill="#f4ef9f" transform="translate(11.25 -5.1)"/><path d="m2.6 17.5.05 1.8-.5.1.2-1.85.25-.05m-.95 5.05.3-1.75.8-.25.4 2.05-1.5-.05m2 1.65h.05l.35.45q1.05.35 2.8 1.85l-.5.05-5.75-.7.7-1.5 2.35-.15" fill="#024b91" transform="translate(11.25 -5.1)"/><path d="m1.95 20.8.2-1.4.5-.1.1 1.25-.8.25m-.65 3.55.35-1.8 1.5.05.55 1.6h-.05l-2.35.15m1.05-6.8.15-1.3h.1v1.25l-.25.05m.3-2.65H2.6l.1-.85-.05.85" fill="#928f5f" transform="translate(11.25 -5.1)"/><path d="m5.85 15.75.95 4.1q.85 4.35.5 5.65-1.25.75-1.45-9.75" fill="#fff" transform="translate(11.25 -5.1)"/><path d="M6.5 5.45q.15 1.25-.4 6.3l-3.95.1Q1.6 9.4 1.65 7l.15-1.9q1.45 1 4.7.35" fill="#333" transform="translate(11.25 -5.1)"/><path d="m2 5.6 4.25.1-.4 5.8Q4 12.7 2.5 11.75 1.6 7.1 2 5.6" fill="#ffff1c" transform="translate(11.25 -5.1)"/><path d="M5.5 6.45q.5 3.9.1 4.55-.85.2-1.6-1.05 1.5.8 1.5-3.5" fill="#fcfdff" transform="translate(11.25 -5.1)"/><path d="M2 5.6q2.1 1.35 3.2 1.75Q1.9 6.8 2 5.6m-.1 2.1q2.55 1.2 3.55 1.4-3.1-.25-3.55-1.4m.25 2.3q1.85 1.45 3.1 1.55-2.55.1-3.1-1.55" fill="#7c690a" transform="translate(11.25 -5.1)"/><path d="m3.4 8.45 2.7-1q-1.1 1-2.7 1m0 2.3L5.9 9.1q-1.6 1.85-2.5 1.65" fill="#7c690a" transform="translate(11.25 -5.1)"/><path d="m2.3 8.15.05-.05v.1l.5.3q.25 1.05.95 1.85l.05.1-.25.2.35-.1h.2q.6.6 1.2.85l.05.05.05.05v.05l-.05.1-.1.05-1.45.4-1.25-.35-.1-.05-.2-1.15v-.1l.05-.05h.1l.05.05q.6.8 2.05.95l-1.15-.5-.05-.05-.05-.05-.95-.65-.15-1.9-.05-.05h.05v-.1l.1.05m.15-2.1V6l-.05-.05v-.1l.05-.05h.1l1.35.55H4l.05.1-.05.1-.1.05-.3.05h-.05L3.5 6.6l-.95-.55h-.1M2 5.95V5.9l.1-.05h.05l.1.05 1 .75.05.05.05.05-.05.1-.4.8.05.45-.05.1-.05.05-.1-.05-.6-.3H2.1v-.1l-.05-.25L2 5.95" fill="#aa9b10" transform="translate(11.25 -5.1)"/><path d="M3.2 6.75q-.9-.35-1.1-.8l-.05-.25.45.2 1.05.6-.35.25M2.85 8.5l-.65-.4v-.3l.6.3.05.4m2.35 3.05q-2.05 0-2.8-1.05l-.05-.35q1.5 1.2 2.85 1.4" fill="#624906" transform="translate(11.25 -5.1)"/><path d="M3.45 10.75H3.4l.45-.3.2.2-.6.1" fill="#624906" transform="translate(11.25 -5.1)"/></g></defs></svg>

<?xml version="1.0" encoding="UTF-8" standalone="no"?>
<svg xmlns:xlink="http://www.w3.org/1999/xlink" height="82.0px" width="84.85px" xmlns="http://www.w3.org/2000/svg">
  <g transform="matrix(1.0, 0.0, 0.0, 1.0, 37.4, 42.25)">
    <use height="38.0" transform="matrix(1.0, 0.0, 0.0, 1.0, -11.95, -17.45)" width="32.05" xlink:href="#sprite0"/>
    <use height="38.95" transform="matrix(1.0, 0.0, 0.0, 1.0, -12.45, -17.95)" width="33.05" xlink:href="#sprite1"/>
    <use height="21.9" transform="matrix(1.0, 0.0, 0.0, 1.0, -11.25, 5.1)" width="30.85" xlink:href="#shape2"/>
  </g>
  <defs>
    <g id="sprite0" transform="matrix(1.0, 0.0, 0.0, 1.0, -0.05, 0.0)">
      <use height="38.0" transform="matrix(1.0, 0.0, 0.0, 1.0, 0.05, 0.0)" width="32.05" xlink:href="#shape0"/>
    </g>
    <g id="shape0" transform="matrix(1.0, 0.0, 0.0, 1.0, -0.05, 0.0)">
      <path d="M27.35 7.4 Q29.5 11.55 30.9 16.15 32.35 20.85 32.05 25.65 31.7 30.6 27.85 33.75 24.05 36.95 19.1 37.8 L16.5 38.0 Q12.9 38.0 9.45 36.85 4.8 35.25 2.35 31.35 -0.2 27.4 0.05 23.0 0.25 18.6 2.05 13.7 3.85 8.75 7.0 5.05 10.1 1.3 14.7 0.1 L16.5 0.0 Q18.4 0.05 20.2 0.8 24.95 2.85 27.35 7.4" fill="#dd994f" fill-rule="evenodd" stroke="none"/>
    </g>
    <g id="sprite1" transform="matrix(1.0, 0.0, 0.0, 1.0, 0.45, 0.5)">
      <use height="38.95" transform="matrix(1.0, 0.0, 0.0, 1.0, -0.45, -0.5)" width="33.05" xlink:href="#shape1"/>
    </g>
    <g id="shape1" transform="matrix(1.0, 0.0, 0.0, 1.0, 0.45, 0.5)">
      <path d="M27.35 7.4 Q24.95 2.85 20.2 0.8 17.55 -0.3 14.7 0.1 10.1 1.3 7.0 5.05 3.85 8.75 2.05 13.7 0.25 18.6 0.05 23.0 -0.2 27.4 2.35 31.35 4.8 35.25 9.45 36.85 14.1 38.4 19.1 37.8 24.05 36.95 27.85 33.75 31.7 30.6 32.05 25.65 32.35 20.85 30.9 16.15 29.5 11.55 27.35 7.4 Z" fill="none" stroke="#532e0f" stroke-linecap="round" stroke-linejoin="round" stroke-width="1.0"/>
    </g>
    <g id="shape2" transform="matrix(1.0, 0.0, 0.0, 1.0, 11.25, -5.1)">
      <path d="M4.2 16.0 L4.0 22.75 -6.25 26.5 -8.3 24.45 Q-8.9 24.05 -8.8 23.6 L-8.55 23.2 Q-9.15 23.0 -9.85 21.8 L-10.45 20.65 -9.7 18.9 -10.05 14.85 -8.7 14.4 4.2 16.0" fill="#333e49" fill-rule="evenodd" stroke="none"/>
      <path d="M4.0 22.75 L2.7 20.2 4.2 20.1 12.05 21.85 16.9 15.4 18.35 14.85 Q19.4 16.1 18.2 19.15 L19.4 20.5 Q20.25 21.0 17.3 23.35 L17.35 24.4 14.5 26.4 4.0 22.75" fill="#333e49" fill-rule="evenodd" stroke="none"/>
      <path d="M18.45 15.2 Q18.95 16.8 17.95 19.05 L19.35 20.85 17.1 23.3 17.25 24.2 14.55 26.15 4.0 22.45 Q3.75 22.95 -6.55 26.35 L-6.35 26.25 -8.7 23.9 -8.55 23.2 Q-9.0 23.1 -10.45 20.65 L-9.55 19.15 Q-8.8 19.5 -9.4 19.15 L-10.05 15.25 18.45 15.2" fill="#333e49" fill-rule="evenodd" stroke="none"/>
      <path d="M-11.25 12.55 L-10.8 13.3 -9.25 14.75 -9.95 15.75 Q-10.65 15.45 -11.05 13.95 L-11.25 12.55" fill="#333e49" fill-rule="evenodd" stroke="none"/>
      <path d="M19.55 12.2 Q19.45 14.9 18.25 15.4 L17.55 14.4 19.15 12.95 19.55 12.2" fill="#333e49" fill-rule="evenodd" stroke="none"/>
      <path d="M4.25 15.6 L4.2 21.5 Q2.85 22.6 -6.15 25.5 L-8.2 23.65 -8.3 22.65 -10.05 20.5 -8.7 19.0 -9.25 18.5 -9.7 15.65 -9.55 13.65 4.25 15.6" fill="#ffffff" fill-rule="evenodd" stroke="none"/>
      <path d="M18.15 15.7 L17.65 18.55 17.15 19.05 18.5 20.55 16.75 22.7 16.65 23.7 14.55 25.55 Q5.3 22.6 3.95 21.55 L4.15 15.65 18.0 13.7 18.15 15.7" fill="#ffffff" fill-rule="evenodd" stroke="none"/>
      <path d="M-8.7 19.0 L-9.25 18.5 Q-7.3 19.1 3.55 17.15 1.8 18.0 -8.7 19.0" fill="#acacad" fill-rule="evenodd" stroke="none"/>
      <path d="M-9.5 21.3 L-10.05 20.5 Q-8.7 21.1 4.05 17.1 -1.7 19.65 -9.5 21.3" fill="#acacad" fill-rule="evenodd" stroke="none"/>
      <path d="M-7.9 23.95 L-8.2 23.65 -8.1 23.1 4.05 17.3 -7.9 23.95" fill="#acacad" fill-rule="evenodd" stroke="none"/>
      <path d="M-0.95 23.85 L-2.5 24.25 4.05 17.1 Q3.6 18.6 -0.95 23.85" fill="#acacad" fill-rule="evenodd" stroke="none"/>
      <path d="M4.8 17.1 Q15.65 19.0 17.55 18.4 L17.05 18.9 Q6.55 17.9 4.8 17.1" fill="#acacad" fill-rule="evenodd" stroke="none"/>
      <path d="M4.3 17.05 Q17.05 21.0 18.4 20.4 L17.85 21.2 Q10.05 19.6 4.3 17.05" fill="#acacad" fill-rule="evenodd" stroke="none"/>
      <path d="M4.3 17.2 L16.45 23.0 16.55 23.6 16.25 23.9 4.3 17.2" fill="#acacad" fill-rule="evenodd" stroke="none"/>
      <path d="M4.3 17.05 L10.8 24.15 9.3 23.75 Q4.75 18.5 4.3 17.05" fill="#acacad" fill-rule="evenodd" stroke="none"/>
      <path d="M3.95 14.0 L17.75 13.05 3.9 14.75 -9.55 13.15 -9.55 12.95 3.95 14.0" fill="#333333" fill-rule="evenodd" stroke="none"/>
      <path d="M4.15 17.55 Q-9.5 16.35 -9.85 15.3 L4.05 17.1 4.25 17.05 18.25 15.1 18.15 15.7 4.15 17.55" fill="#7e7e7f" fill-rule="evenodd" stroke="none"/>
      <path d="M4.2 17.1 L-9.4 15.6 Q-10.65 14.6 -11.05 12.85 L4.55 14.5 4.2 17.1" fill="#034cb2" fill-rule="evenodd" stroke="none"/>
      <path d="M19.3 12.85 Q18.9 14.6 17.65 15.6 L4.05 17.15 3.7 14.5 19.3 12.85" fill="#034cb2" fill-rule="evenodd" stroke="none"/>
      <path d="M4.05 15.65 L-10.95 12.85 4.0 14.55 19.15 12.95 4.05 15.65" fill="#ffff1c" fill-rule="evenodd" stroke="none"/>
      <path d="M3.95 16.55 L17.8 15.7 4.05 17.1 -9.4 15.6 3.95 16.55" fill="#ffff1c" fill-rule="evenodd" stroke="none"/>
      <path d="M2.2 13.45 L2.4 13.5 3.0 14.85 1.05 24.9 Q0.05 25.3 -1.7 24.5 -1.1 24.5 -0.55 22.85 -1.5 23.2 -2.35 21.6 -0.95 20.8 2.2 13.45" fill="#493c05" fill-rule="evenodd" stroke="none"/>
      <path d="M6.2 13.45 Q10.55 21.15 10.9 21.25 10.3 22.4 9.75 22.45 L9.9 24.0 Q8.75 25.2 7.8 25.05 L5.3 14.05 6.2 13.45" fill="#493c05" fill-rule="evenodd" stroke="none"/>
      <path d="M2.2 13.45 L2.7 13.55 2.9 14.05 1.2 24.3 -1.25 24.45 Q-0.35 24.1 -0.55 22.55 L-0.75 22.6 -1.85 21.75 Q-0.6 21.25 2.2 13.45" fill="#ffff1c" fill-rule="evenodd" stroke="none"/>
      <path d="M6.2 13.5 L10.4 21.2 9.25 22.2 9.5 23.65 Q8.75 24.65 7.8 24.65 7.25 24.65 6.7 23.85 L6.25 23.0 5.3 14.05 6.05 13.8 5.9 13.6 6.2 13.5" fill="#ffff1c" fill-rule="evenodd" stroke="none"/>
      <path d="M-0.55 22.55 L1.45 16.45 Q0.15 22.8 -0.75 23.8 L-0.55 22.55" fill="#7c690a" fill-rule="evenodd" stroke="none"/>
      <path d="M6.5 14.45 Q9.4 22.2 9.75 22.45 L9.7 23.25 Q6.55 15.75 6.5 14.45" fill="#7c690a" fill-rule="evenodd" stroke="none"/>
      <path d="M1.7 16.45 Q2.05 17.3 1.15 24.45 L-0.5 24.4 Q0.25 24.3 1.7 16.45" fill="#e2bf30" fill-rule="evenodd" stroke="none"/>
      <path d="M-0.75 22.4 L-1.5 21.8 Q-0.85 22.35 0.35 19.2 L-0.75 22.4" fill="#e2bf30" fill-rule="evenodd" stroke="none"/>
      <path d="M6.45 15.7 L9.2 23.65 8.2 24.3 Q8.35 22.9 7.4 19.15 L6.45 15.7" fill="#e2bf30" fill-rule="evenodd" stroke="none"/>
      <path d="M6.95 15.5 L9.7 21.3 10.15 21.15 9.5 21.75 6.95 15.5" fill="#e2bf30" fill-rule="evenodd" stroke="none"/>
      <path d="M1.5 13.8 L1.95 13.0 6.5 13.05 6.9 13.95 1.5 13.8" fill="#333333" fill-rule="evenodd" stroke="none"/>
      <path d="M6.3 13.3 Q6.75 13.95 6.45 15.4 L7.25 18.7 Q9.0 26.1 7.25 27.0 L-0.55 26.4 Q1.1 25.85 1.55 18.35 1.45 16.05 1.8 14.4 L2.2 13.25 6.3 13.3" fill="#05486d" fill-rule="evenodd" stroke="none"/>
      <path d="M6.2 13.4 Q6.45 14.6 6.2 15.35 8.95 26.55 7.2 26.8 L0.0 26.35 Q1.65 24.75 1.7 17.25 L2.25 13.4 6.2 13.4" fill="#037df2" fill-rule="evenodd" stroke="none"/>
      <path d="M1.75 19.45 L6.9 19.05 7.2 20.5 4.55 20.4 Q1.85 20.45 1.65 21.15 L1.75 19.45" fill="#f4ef9f" fill-rule="evenodd" stroke="none"/>
      <path d="M1.45 22.55 L7.5 22.75 7.7 24.3 1.15 24.45 1.45 22.55" fill="#f4ef9f" fill-rule="evenodd" stroke="none"/>
      <path d="M2.05 16.25 L6.3 16.25 6.65 17.5 1.8 17.75 2.05 16.25" fill="#f4ef9f" fill-rule="evenodd" stroke="none"/>
      <path d="M2.05 14.05 L6.25 14.2 6.05 15.2 1.8 15.05 2.05 14.05" fill="#f4ef9f" fill-rule="evenodd" stroke="none"/>
      <path d="M2.6 17.5 L2.65 19.3 2.15 19.4 2.35 17.55 2.6 17.5 M1.65 22.55 L1.95 20.8 2.75 20.55 3.15 22.6 1.65 22.55 M3.65 24.2 L3.7 24.2 4.05 24.65 Q5.1 25.0 6.85 26.5 L6.35 26.55 0.6 25.85 1.3 24.35 3.65 24.2" fill="#024b91" fill-rule="evenodd" stroke="none"/>
      <path d="M1.95 20.8 L2.15 19.4 2.65 19.3 2.75 20.55 1.95 20.8" fill="#928f5f" fill-rule="evenodd" stroke="none"/>
      <path d="M1.3 24.35 L1.65 22.55 3.15 22.6 3.7 24.2 3.65 24.2 1.3 24.35" fill="#928f5f" fill-rule="evenodd" stroke="none"/>
      <path d="M2.35 17.55 L2.5 16.25 2.6 16.25 2.6 17.5 2.35 17.55" fill="#928f5f" fill-rule="evenodd" stroke="none"/>
      <path d="M2.65 14.9 L2.6 14.9 2.7 14.05 2.65 14.9" fill="#928f5f" fill-rule="evenodd" stroke="none"/>
      <path d="M5.85 15.75 L6.8 19.85 Q7.65 24.2 7.3 25.5 6.05 26.25 5.85 15.75" fill="#ffffff" fill-rule="evenodd" stroke="none"/>
      <path d="M6.5 5.45 Q6.65 6.7 6.1 11.75 L2.15 11.85 Q1.6 9.4 1.65 7.0 L1.8 5.1 Q3.25 6.1 6.5 5.45" fill="#333333" fill-rule="evenodd" stroke="none"/>
      <path d="M2.0 5.6 L6.25 5.7 5.85 11.5 Q4.0 12.7 2.5 11.75 1.6 7.1 2.0 5.6" fill="#ffff1c" fill-rule="evenodd" stroke="none"/>
      <path d="M5.5 6.45 Q6.0 10.35 5.6 11.0 4.75 11.2 4.0 9.95 5.5 10.75 5.5 6.45" fill="#fcfdff" fill-rule="evenodd" stroke="none"/>
      <path d="M2.0 5.6 Q4.1 6.95 5.2 7.35 1.9 6.8 2.0 5.6" fill="#7c690a" fill-rule="evenodd" stroke="none"/>
      <path d="M1.9 7.7 Q4.45 8.9 5.45 9.1 2.35 8.85 1.9 7.7" fill="#7c690a" fill-rule="evenodd" stroke="none"/>
      <path d="M2.15 10.0 Q4.0 11.45 5.25 11.55 2.7 11.65 2.15 10.0" fill="#7c690a" fill-rule="evenodd" stroke="none"/>
      <path d="M3.4 8.45 L6.1 7.45 Q5.0 8.45 3.4 8.45" fill="#7c690a" fill-rule="evenodd" stroke="none"/>
      <path d="M3.4 10.75 L5.9 9.1 Q4.3 10.95 3.4 10.75" fill="#7c690a" fill-rule="evenodd" stroke="none"/>
      <path d="M2.3 8.15 L2.35 8.1 2.35 8.2 2.85 8.5 Q3.1 9.55 3.8 10.35 L3.85 10.45 3.6 10.65 3.95 10.55 4.0 10.55 4.1 10.55 4.15 10.55 Q4.75 11.15 5.35 11.4 L5.4 11.45 5.45 11.5 5.45 11.55 5.4 11.65 5.3 11.7 3.85 12.1 2.6 11.75 2.5 11.7 2.3 10.55 2.3 10.45 2.35 10.4 2.45 10.4 2.5 10.45 Q3.1 11.25 4.55 11.4 L3.4 10.9 3.35 10.85 3.3 10.8 2.35 10.15 2.2 8.25 2.15 8.2 2.2 8.2 2.2 8.1 2.3 8.15 M2.45 6.05 L2.45 6.0 2.4 5.95 2.4 5.85 2.45 5.8 2.55 5.8 3.9 6.35 4.0 6.35 4.05 6.45 4.0 6.55 3.9 6.6 3.6 6.65 3.55 6.65 3.5 6.6 2.55 6.05 2.45 6.05 M2.0 5.95 L2.0 5.9 2.1 5.85 2.15 5.85 2.25 5.9 3.25 6.65 3.3 6.7 3.35 6.75 3.3 6.85 2.9 7.65 2.95 8.1 2.9 8.2 2.85 8.25 2.75 8.2 2.15 7.9 2.1 7.9 2.1 7.8 2.05 7.55 2.0 5.95" fill="#aa9b10" fill-rule="evenodd" stroke="none"/>
      <path d="M3.2 6.75 Q2.3 6.4 2.1 5.95 L2.05 5.7 2.5 5.9 3.55 6.5 3.2 6.75" fill="#624906" fill-rule="evenodd" stroke="none"/>
      <path d="M2.85 8.5 L2.2 8.1 2.2 7.8 2.8 8.1 2.85 8.5" fill="#624906" fill-rule="evenodd" stroke="none"/>
      <path d="M5.2 11.55 Q3.15 11.55 2.4 10.5 L2.35 10.15 Q3.85 11.35 5.2 11.55" fill="#624906" fill-rule="evenodd" stroke="none"/>
      <path d="M3.45 10.75 L3.4 10.75 3.85 10.45 4.05 10.65 3.45 10.75" fill="#624906" fill-rule="evenodd" stroke="none"/>
    </g>
  </defs>
</svg>
